<?xml version="1.0" encoding="UTF-8"?>
<map version="1.10" tiledversion="1.10.2" orientation="orthogonal" renderorder="right-down" width="40" height="30" tilewidth="16" tileheight="16" infinite="0" nextlayerid="4" nextobjectid="12">
  <!-- Town/Village - hub area with shops and NPCs -->
  <tileset firstgid="1" name="village" tilewidth="16" tileheight="16" tilecount="60" columns="10">
    <image source="village.png" width="160" height="96"/>
  </tileset>
  
  <layer id="1" name="terrain" width="40" height="30">
    <data encoding="csv">
1,1,1,1,1,1,1,1,1,1,1,1,1,1,1,1,1,1,1,1,1,1,1,1,1,1,1,1,1,1,1,1,1,1,1,1,1,1,1,1,
1,2,2,2,2,2,2,2,2,2,2,2,2,2,2,2,2,2,2,2,2,2,2,2,2,2,2,2,2,2,2,2,2,2,2,2,2,2,2,1,
1,2,3,3,3,3,3,3,3,3,3,3,3,3,3,3,3,3,3,3,3,3,3,3,3,3,3,3,3,3,3,3,3,3,3,3,3,3,2,1,
1,2,3,3,3,3,3,3,3,3,3,3,3,3,3,3,3,3,3,3,3,3,3,3,3,3,3,3,3,3,3,3,3,3,3,3,3,3,2,1,
1,2,3,4,4,4,3,3,3,3,5,5,5,3,3,3,3,6,6,6,3,3,3,7,7,7,3,3,3,3,8,8,8,3,3,3,3,3,2,1,
1,2,3,4,4,4,3,3,3,3,5,5,5,3,3,3,3,6,6,6,3,3,3,7,7,7,3,3,3,3,8,8,8,3,3,3,3,3,2,1,
1,2,3,4,4,4,3,3,3,3,5,5,5,3,3,3,3,6,6,6,3,3,3,7,7,7,3,3,3,3,8,8,8,3,3,3,3,3,2,1,
1,2,3,3,3,3,3,3,3,3,3,3,3,3,3,3,3,3,3,3,3,3,3,3,3,3,3,3,3,3,3,3,3,3,3,3,3,3,2,1,
1,2,3,3,3,3,3,3,3,3,3,3,3,3,3,3,3,3,3,3,3,3,3,3,3,3,3,3,3,3,3,3,3,3,3,3,3,3,2,1,
1,2,3,3,3,3,3,3,3,3,3,3,3,3,3,3,3,3,3,3,3,3,3,3,3,3,3,3,3,3,3,3,3,3,3,3,3,3,2,1,
1,2,3,3,3,3,3,3,3,3,3,3,3,3,3,3,3,3,3,3,3,3,3,3,3,3,3,3,3,3,3,3,3,3,3,3,3,3,2,1,
1,2,3,3,3,3,3,3,3,3,3,3,3,3,3,3,3,3,3,3,3,3,3,3,3,3,3,3,3,3,3,3,3,3,3,3,3,3,2,1,
1,2,3,3,3,3,3,3,3,3,3,3,3,3,3,3,3,3,3,3,3,3,3,3,3,3,3,3,3,3,3,3,3,3,3,3,3,3,2,1,
1,2,3,3,3,3,3,3,3,3,3,3,3,3,3,3,3,3,3,3,3,3,3,3,3,3,3,3,3,3,3,3,3,3,3,3,3,3,2,1,
1,2,3,3,3,3,3,3,3,3,3,3,3,3,3,3,3,3,3,3,3,3,3,3,3,3,3,3,3,3,3,3,3,3,3,3,3,3,2,1,
1,2,3,3,3,3,3,3,3,3,3,3,3,3,3,3,3,3,3,3,3,3,3,3,3,3,3,3,3,3,3,3,3,3,3,3,3,3,2,1,
1,2,3,9,9,9,3,3,3,3,10,10,10,3,3,3,3,11,11,11,3,3,3,12,12,12,3,3,3,3,13,13,13,3,3,3,3,3,2,1,
1,2,3,9,9,9,3,3,3,3,10,10,10,3,3,3,3,11,11,11,3,3,3,12,12,12,3,3,3,3,13,13,13,3,3,3,3,3,2,1,
1,2,3,9,9,9,3,3,3,3,10,10,10,3,3,3,3,11,11,11,3,3,3,12,12,12,3,3,3,3,13,13,13,3,3,3,3,3,2,1,
1,2,3,3,3,3,3,3,3,3,3,3,3,3,3,3,3,3,3,3,3,3,3,3,3,3,3,3,3,3,3,3,3,3,3,3,3,3,2,1,
1,2,3,3,3,3,3,3,3,3,3,3,3,3,3,3,3,3,3,3,3,3,3,3,3,3,3,3,3,3,3,3,3,3,3,3,3,3,2,1,
1,2,3,3,3,3,3,3,3,3,3,3,3,3,3,3,3,3,3,3,3,3,3,3,3,3,3,3,3,3,3,3,3,3,3,3,3,3,2,1,
1,2,3,3,3,3,3,3,3,3,3,3,3,3,3,3,3,3,3,3,3,3,3,3,3,3,3,3,3,3,3,3,3,3,3,3,3,3,2,1,
1,2,3,3,3,3,3,3,3,3,3,3,3,3,3,3,3,3,3,3,3,3,3,3,3,3,3,3,3,3,3,3,3,3,3,3,3,3,2,1,
1,2,3,3,3,3,3,3,3,3,3,3,3,3,3,3,3,3,3,3,3,3,3,3,3,3,3,3,3,3,3,3,3,3,3,3,3,3,2,1,
1,2,3,3,3,3,3,3,3,3,3,3,3,3,3,3,3,3,3,3,3,3,3,3,3,3,3,3,3,3,3,3,3,3,3,3,3,3,2,1,
1,2,3,3,3,3,3,3,3,3,3,3,3,3,3,3,3,3,3,3,3,3,3,3,3,3,3,3,3,3,3,3,3,3,3,3,3,3,2,1,
1,2,3,3,3,3,3,3,3,3,3,3,3,3,3,3,3,3,3,3,3,3,3,3,3,3,3,3,3,3,3,3,3,3,3,3,3,3,2,1,
1,2,2,2,2,2,2,2,2,2,2,2,2,2,2,2,2,2,2,2,2,2,2,2,2,2,2,2,2,2,2,2,2,2,2,2,2,2,2,1,
1,1,1,1,1,1,1,1,1,1,1,1,1,1,1,1,1,1,1,1,1,1,1,1,1,1,1,1,1,1,1,1,1,1,1,1,1,1,1,1
    </data>
  </layer>
  
  <objectgroup id="2" name="locations">
    <object id="1" name="town_center" type="landmark" x="320" y="240" width="0" height="0"/>
    <object id="2" name="blacksmith" type="shop" x="64" y="80" width="48" height="48"/>
    <object id="3" name="general_store" type="shop" x="160" y="80" width="48" height="48"/>
    <object id="4" name="inn" type="shop" x="256" y="80" width="48" height="48"/>
    <object id="5" name="temple" type="shop" x="352" y="80" width="48" height="48"/>
    <object id="6" name="alchemist" type="shop" x="448" y="80" width="48" height="48"/>
    <object id="7" name="gate_entrance" type="trigger" x="0" y="240" width="0" height="0"/>
    <object id="8" name="gate_exit" type="trigger" x="640" y="240" width="0" height="0"/>
    <object id="9" name="mayor_npc" type="npc" x="320" y="240" width="0" height="0"/>
    <object id="10" name="bounty_board" type="trigger" x="320" y="320" width="32" height="32"/>
    <object id="11" name="quest_giver_1" type="npc" x="400" y="320" width="0" height="0"/>
    <object id="12" name="quest_giver_2" type="npc" x="240" y="320" width="0" height="0"/>
  </objectgroup>
</map>
