<?xml version="1.0" encoding="UTF-8"?>
<map version="1.10" tiledversion="1.10.2" orientation="orthogonal" renderorder="right-down" width="20" height="15" tilewidth="16" tileheight="16" infinite="0" nextlayerid="3" nextobjectid="1">
  <!-- Simple outdoor level -->
  <tileset firstgid="1" name="outdoor" tilewidth="16" tileheight="16" tilecount="16" columns="4">
    <image source="outdoor.png" width="64" height="64"/>
  </tileset>
  
  <layer id="1" name="tiles" width="20" height="15">
    <data encoding="csv">
1,1,1,1,1,1,1,1,1,1,1,1,1,1,1,1,1,1,1,1,
1,2,2,2,2,2,2,2,2,2,2,2,2,2,2,2,2,2,2,1,
1,2,3,3,3,3,3,3,3,3,3,3,3,3,3,3,3,3,2,1,
1,2,3,5,5,5,5,5,5,5,5,5,5,5,5,5,5,3,2,1,
1,2,3,5,6,6,6,6,6,6,6,6,6,6,6,6,5,3,2,1,
1,2,3,5,6,7,7,7,7,7,7,7,7,7,7,6,5,3,2,1,
1,2,3,5,6,7,8,8,8,8,8,8,8,8,7,6,5,3,2,1,
1,2,3,5,6,7,8,9,9,9,9,9,9,8,7,6,5,3,2,1,
1,2,3,5,6,7,8,9,10,10,9,9,9,8,7,6,5,3,2,1,
1,2,3,5,6,7,8,9,9,9,9,9,9,8,7,6,5,3,2,1,
1,2,3,5,6,7,8,8,8,8,8,8,8,8,7,6,5,3,2,1,
1,2,3,5,6,7,7,7,7,7,7,7,7,7,7,6,5,3,2,1,
1,2,3,5,6,6,6,6,6,6,6,6,6,6,6,6,5,3,2,1,
1,2,3,3,3,3,3,3,3,3,3,3,3,3,3,3,3,3,2,1,
1,1,1,1,1,1,1,1,1,1,1,1,1,1,1,1,1,1,1,1
    </data>
  </layer>
</map>
